X:109
T:Leitrim Jig, The
T:Whelan's
T:Whelan's Fancy
T:Rookery, The
R:jig
Z:id:hn-jig-109
M:6/8
K:Edor
~E3 BAF|FEB AFD|~E3 BAF|dAF FED|~E3 BAF|FEB AFD|~B3 BAF|dAF FED:|
~B3 ~e3|fed e2d|BAB g2e|fdB AFA|~B3 ~e3|fed e2f|gbg faf|1 edB AFA:|2 edB AFD||

